X:1
T:L'a\'eroplane d'Erquy
G:Skol Al Louarn
R:A\'eroplane d'Erquy (scottish )
C:Traditionnel, arrangement Ronan Keryell http://kazimodal.trad.org
Q:C4=106
P:A5
M:2/4
K:G
P:A
|: "G"d2d2 "C"e2d2 | "G"d2GA "Em"B4 | "Bm"BdcB "Am"A2Bc |1\
"C"dc"D"BA "G"B2G2 :|2 "C"dc"D"BA "G"G4 :|
|: "Em"B2B2 "Am"c2A2 | "D"A2GA "G"B4 | "Bm"BdcB "Am"A2Bc |1\
"C"dc"D"BA "G"B2G2 :|2 "C"dc"D"BA "G"G4  ||
